assets/Winking face/Flat/winking_face_flat.svg

<svg width="32" height="32" viewBox="0 0 32 32" fill="none" xmlns="http://www.w3.org/2000/svg">
<path d="M15.9989 29.9978C25.3333 29.9978 29.9978 23.7303 29.9978 15.9989C29.9978 8.26751 25.3333 2 15.9989 2C6.66443 2 2 8.26751 2 15.9989C2 23.7303 6.66443 29.9978 15.9989 29.9978Z" fill="#FFB02E"/>
<path d="M13.9577 17.3801C14.6085 16.5997 15 15.5956 15 14.5C15 12.0147 12.9853 10 10.5 10C8.01472 10 6 12.0147 6 14.5C6 15.5956 6.39151 16.5997 7.04226 17.3801C7.46096 17.17 7.98744 16.9459 8.58738 16.7764C9.16673 16.6128 10.5781 15.9492 10.5781 15.9492C10.5781 15.9492 12.4478 16.7473 13.1976 17.0411C13.4784 17.1511 13.7335 17.2676 13.9577 17.3801Z" fill="white"/>
<path d="M6.97423 9.65811C7.11769 9.22774 7.47625 8.55049 8.06915 7.98761C8.65355 7.4328 9.45198 7 10.4999 7C10.776 7 10.9999 6.77614 10.9999 6.5C10.9999 6.22386 10.776 6 10.4999 6C9.1478 6 8.1129 6.5672 7.38064 7.26239C6.65687 7.94951 6.21542 8.77226 6.02555 9.34189C5.93823 9.60386 6.07981 9.88702 6.34178 9.97434C6.60375 10.0617 6.88691 9.92009 6.97423 9.65811Z" fill="#402A32"/>
<path d="M21.5 8C21.2239 8 21 8.22386 21 8.5C21 8.77614 21.2239 9 21.5 9C22.0591 9 22.8408 9.2157 23.5404 9.66948C24.2338 10.1192 24.803 10.7736 25.0149 11.6213C25.0819 11.8892 25.3534 12.052 25.6213 11.9851C25.8892 11.9181 26.052 11.6466 25.9851 11.3787C25.697 10.2264 24.9329 9.38077 24.0846 8.83052C23.2425 8.2843 22.2743 8 21.5 8Z" fill="#402A32"/>
<path d="M14 15C14 15.7885 13.6958 16.5059 13.1984 17.0414C12.4484 16.7475 11.5155 16.5 10.5 16.5C9.8129 16.5 9.16357 16.6133 8.58314 16.7776C8.2166 16.2801 8 15.6654 8 15C8 13.3431 9.34315 12 11 12C12.6569 12 14 13.3431 14 15Z" fill="#402A32"/>
<path d="M18.9701 15.2425C19.0479 14.9314 19.5452 14 21 14C22.4548 14 22.9521 14.9314 23.0299 15.2425C23.1638 15.7783 23.7067 16.1041 24.2425 15.9701C24.7783 15.8362 25.1041 15.2933 24.9701 14.7575C24.7146 13.7352 23.5452 12 21 12C18.4548 12 17.2854 13.7352 17.0299 14.7575C16.8959 15.2933 17.2217 15.8362 17.7575 15.9701C18.2933 16.1041 18.8362 15.7783 18.9701 15.2425Z" fill="#402A32"/>
<path d="M16 23.0001C19.138 23.0001 20.8586 21.3553 21.2 20.9001C21.5314 20.4582 22.1582 20.3687 22.6 20.7001C23.0418 21.0314 23.1314 21.6582 22.8 22.1001C22.1414 22.9782 19.862 25.0001 16 25.0001C12.8882 25.0001 10.8906 23.5209 10.2 22.6001C9.86863 22.1582 9.95817 21.5314 10.4 21.2001C10.8418 20.8687 11.4686 20.9582 11.8 21.4001C12.1094 21.8125 13.5118 23.0001 16 23.0001Z" fill="#402A32"/>
</svg>

<svg xmlns="http://www.w3.org/2000/svg" width="32" height="32" fill="none"><path fill="#FFB02E" d="M15.999 29.998c9.334 0 13.999-6.268 13.999-14 0-7.73-4.665-13.998-14-13.998C6.665 2 2 8.268 2 15.999c0 7.731 4.664 13.999 13.999 13.999Z"/><path fill="#fff" d="M13.958 17.38a4.5 4.5 0 1 0-6.915 0c.418-.21.944-.434 1.544-.604.58-.163 1.991-.827 1.991-.827s1.87.798 2.62 1.092c.28.11.535.227.76.34Z"/><path fill="#402A32" d="M6.974 9.658c.144-.43.502-1.108 1.095-1.67C8.654 7.433 9.452 7 10.5 7a.5.5 0 0 0 0-1c-1.351 0-2.386.567-3.118 1.262-.724.688-1.166 1.51-1.355 2.08a.5.5 0 0 0 .948.316ZM21.5 8a.5.5 0 0 0 0 1c.56 0 1.34.216 2.04.67.694.45 1.263 1.104 1.475 1.951a.5.5 0 0 0 .97-.242c-.288-1.153-1.052-1.998-1.9-2.548C23.242 8.284 22.275 8 21.5 8ZM14 15a2.99 2.99 0 0 1-.802 2.041c-.75-.294-1.683-.541-2.698-.541-.687 0-1.336.113-1.917.278A3 3 0 1 1 14 15ZM18.97 15.242c.078-.31.575-1.242 2.03-1.242 1.455 0 1.952.931 2.03 1.242a1 1 0 1 0 1.94-.485C24.715 13.736 23.545 12 21 12s-3.715 1.735-3.97 2.758a1 1 0 1 0 1.94.485ZM16 23c3.138 0 4.859-1.645 5.2-2.1a1 1 0 1 1 1.6 1.2c-.659.878-2.938 2.9-6.8 2.9-3.112 0-5.11-1.48-5.8-2.4a1 1 0 1 1 1.6-1.2c.31.413 1.712 1.6 4.2 1.6Z"/></svg>
